svgs/thin/bed.svg

<svg xmlns="http://www.w3.org/2000/svg" viewBox="0 0 640 512"><!--! Font Awesome Pro 6.6.0 by @fontawesome - https://fontawesome.com License - https://fontawesome.com/license (Commercial License) Copyright 2024 Fonticons, Inc. --><path d="M16 40c0-4.4-3.6-8-8-8s-8 3.6-8 8L0 328l0 80 0 64c0 4.4 3.6 8 8 8s8-3.6 8-8l0-56 608 0 0 56c0 4.4 3.6 8 8 8s8-3.6 8-8l0-64 0-80 0-96c0-57.4-46.6-104-104-104l-224 0c-22.1 0-40 17.9-40 40l0 152L16 320 16 40zM624 400L16 400l0-64 264 0 344 0 0 64zm0-168l0 88-336 0 0-152c0-13.3 10.7-24 24-24l224 0c48.6 0 88 39.4 88 88zM80 208a64 64 0 1 1 128 0A64 64 0 1 1 80 208zm144 0A80 80 0 1 0 64 208a80 80 0 1 0 160 0z"/></svg>

<svg xmlns="http://www.w3.org/2000/svg" viewBox="0 0 640 512"><!--! Font Awesome Pro 6.4.2 by @fontawesome - https://fontawesome.com License - https://fontawesome.com/license (Commercial License) Copyright 2023 Fonticons, Inc. --><path d="M16 40c0-4.4-3.6-8-8-8s-8 3.6-8 8V328v80 64c0 4.4 3.6 8 8 8s8-3.6 8-8V416H624v56c0 4.4 3.6 8 8 8s8-3.6 8-8V408 328 232c0-57.4-46.6-104-104-104H312c-22.1 0-40 17.9-40 40V320H16V40zM624 400H16V336H280 624v64zm0-168v88H288V168c0-13.3 10.7-24 24-24H536c48.6 0 88 39.4 88 88zM80 208a64 64 0 1 1 128 0A64 64 0 1 1 80 208zm144 0A80 80 0 1 0 64 208a80 80 0 1 0 160 0z"/></svg>
